X: 82
M: C|
L: 1/8
K: Am
(AG) | E2 A2 A2 B2 | c4 c2 (dc) |
c4 c2 d2 | e3 d c2 d2 | e6 (g>f) |
e3 d c2 d2 | (d3 f) g2 (fe) | d3 c

